remix/Logos/edge-line.svg

<svg viewBox="0 0 24 24" fill="currentColor" xmlns="http://www.w3.org/2000/svg"><path d="M8.00776 14.0012C8.00326 14.0837 8.00098 14.1666 8.00098 14.25C8.00098 16.6319 9.75362 19 13.001 19C15.3739 19 17.5285 18.345 19.001 17.4465V20.7972C17.2123 21.5636 15.1135 22 13.001 22C7.49897 22 5.00098 18.5302 5.00098 14.25C5.00098 11.0187 7.04227 8.24935 9.94376 7.08603C8.53997 8.66307 8.00098 10.3413 8.00098 10.9952L18.001 11C18.001 7.59382 15.4528 5 12.001 5C7.00098 5 3.99969 8.9877 3.00098 10.9989C3.29063 6.23741 7.01012 2 12.001 2C17.201 2 21.001 6.02944 21.001 11V14H8.00098L8.00776 14.0012Z"/></svg>

<svg viewBox="0 0 24 24" xmlns="http://www.w3.org/2000/svg"><path fill="none" d="M0 0h24v24H0Z"/><path d="M8.007 14.001v0c-.01.08-.01.16-.01.24 0 2.38 1.75 4.75 5 4.75 2.37 0 4.52-.66 6-1.56v3.35c-1.79.76-3.89 1.2-6 1.2 -5.502 0-8-3.47-8-7.75 0-3.231 2.04-6 4.94-7.17 -1.41 1.57-1.95 3.25-1.95 3.91l10 0c0-3.41-2.548-6-6-6 -5 0-8.001 3.98-9 5.99 .29-4.77 4.01-8.999 9-8.999 5.2 0 9 4.03 9 9v3h-13l0 0Z"/></svg>
